icons/svg/seamark/notice_prohibition_nowaterskiing.svg

<?xml version="1.0" encoding="UTF-8" standalone="no"?>
<svg
   xmlns:dc="http://purl.org/dc/elements/1.1/"
   xmlns:cc="http://creativecommons.org/ns#"
   xmlns:rdf="http://www.w3.org/1999/02/22-rdf-syntax-ns#"
   xmlns:svg="http://www.w3.org/2000/svg"
   xmlns="http://www.w3.org/2000/svg"
   xmlns:sodipodi="http://sodipodi.sourceforge.net/DTD/sodipodi-0.dtd"
   xmlns:inkscape="http://www.inkscape.org/namespaces/inkscape"
   width="320"
   height="320"
   id="svg2"
   version="1.1"
   inkscape:version="0.48.4 r9939"
   sodipodi:docname="notice_prohibition_no_sport_craft.svg">
  <defs
     id="defs13">
    <inkscape:path-effect
       effect="gears"
       id="path-effect3774"
       is_visible="true"
       teeth="6"
       phi="-1.2" />
    <inkscape:path-effect
       effect="bend_path"
       id="path-effect3772"
       is_visible="false"
       bendpath="m 95.790098,316.51174 c 144.429032,-206.42506 223.313032,-11.7428 339.548092,0"
       prop_scale="1.19"
       scale_y_rel="false"
       vertical="false"
       bendpath-nodetypes="cc" />
    <inkscape:path-effect
       effect="spiro"
       id="path-effect3775"
       is_visible="true" />
    <inkscape:path-effect
       effect="spiro"
       id="path-effect3775-9"
       is_visible="true" />
    <inkscape:path-effect
       effect="spiro"
       id="path-effect3775-3"
       is_visible="true" />
    <inkscape:path-effect
       effect="spiro"
       id="path-effect3775-3-4"
       is_visible="true" />
  </defs>
  <sodipodi:namedview
     pagecolor="#ffffff"
     bordercolor="#666666"
     borderopacity="1"
     objecttolerance="10"
     gridtolerance="10"
     guidetolerance="10"
     inkscape:pageopacity="0"
     inkscape:pageshadow="2"
     inkscape:window-width="1920"
     inkscape:window-height="1004"
     id="namedview11"
     showgrid="true"
     inkscape:zoom="1.4142136"
     inkscape:cx="132.36493"
     inkscape:cy="167.64543"
     inkscape:window-x="1680"
     inkscape:window-y="0"
     inkscape:window-maximized="1"
     inkscape:current-layer="svg2"
     inkscape:snap-bbox="true"
     inkscape:object-nodes="true"
     inkscape:snap-midpoints="true"
     inkscape:snap-grids="false"
     inkscape:snap-bbox-edge-midpoints="true"
     showguides="true"
     inkscape:guide-bbox="true"
     inkscape:snap-center="true"
     inkscape:snap-object-midpoints="true">
    <inkscape:grid
       type="xygrid"
       id="grid2990"
       empspacing="5"
       visible="true"
       enabled="true"
       snapvisiblegridlinesonly="true"
       spacingx="10px"
       spacingy="10px"
       dotted="false" />
    <sodipodi:guide
       orientation="1,0"
       position="55.202458,260.58927"
       id="guide3872" />
    <sodipodi:guide
       orientation="1,0"
       position="265.17816,340"
       id="guide3874" />
    <sodipodi:guide
       orientation="0,1"
       position="325.098,54.759006"
       id="guide3878" />
  </sodipodi:namedview>
  <metadata
     id="metadata2975">image/svg+xmlen<rdf:RDF>
  <cc:Work
     rdf:about="">
    <dc:format>image/svg+xml</dc:format>
    <dc:type
       rdf:resource="http://purl.org/dc/dcmitype/StillImage" />
    <dc:title></dc:title>
  </cc:Work>
</rdf:RDF>
</metadata>
  <path
     inkscape:connector-curvature="0"
     style="font-size:medium;font-style:normal;font-variant:normal;font-weight:normal;font-stretch:normal;text-indent:0;text-align:start;text-decoration:none;line-height:normal;letter-spacing:normal;word-spacing:normal;text-transform:none;direction:ltr;block-progression:tb;writing-mode:lr-tb;text-anchor:start;color:#000000;fill:#000000;fill-opacity:1;stroke:none;stroke-width:54.18192673;marker:none;visibility:visible;display:inline;overflow:visible;enable-background:accumulate;font-family:Bitstream Vera Sans;-inkscape-font-specification:Bitstream Vera Sans"
     d="m 192.07159,160.53971 c -1.78797,-0.44577 -3.72475,-0.26963 -5.40298,0.49137 l -38.22795,16.35519 c -2.02898,0.82896 -3.698,2.50119 -4.52305,4.53176 -0.82505,2.03058 -0.79538,4.39301 0.0804,6.40222 0.87579,2.00922 2.58627,3.639 4.63544,4.41674 2.04916,0.77774 4.41027,0.69329 6.39863,-0.22886 l 37.60294,-14.98019 c 3.17035,-1.32852 5.92374,-6.18277 5.66284,-9.61031 -0.26089,-3.42754 -2.89137,-6.54456 -6.22628,-7.37792 z"
     id="path3626"
     sodipodi:nodetypes="cccsssccscc" />
  <path
     inkscape:connector-curvature="0"
     style="font-size:medium;font-style:normal;font-variant:normal;font-weight:normal;font-stretch:normal;text-indent:0;text-align:start;text-decoration:none;line-height:normal;letter-spacing:normal;word-spacing:normal;text-transform:none;direction:ltr;block-progression:tb;writing-mode:lr-tb;text-anchor:start;color:#000000;fill:#000000;fill-opacity:1;stroke:none;stroke-width:66.1847229;marker:none;visibility:visible;display:inline;overflow:visible;enable-background:accumulate;font-family:Bitstream Vera Sans;-inkscape-font-specification:Bitstream Vera Sans"
     d="m 203.81102,118.8558 a 10.077863,10.077863 0 0 0 -10.82134,6.74634 l -14.00677,39.21075 a 10.077863,10.077863 0 1 0 18.97752,6.77484 l 14.00678,-39.21076 a 10.077863,10.077863 0 0 0 -8.15619,-13.52117 z"
     id="path3628" />
  <path
     inkscape:connector-curvature="0"
     style="font-size:medium;font-style:normal;font-variant:normal;font-weight:normal;font-stretch:normal;text-indent:0;text-align:start;text-decoration:none;line-height:normal;letter-spacing:normal;word-spacing:normal;text-transform:none;direction:ltr;block-progression:tb;writing-mode:lr-tb;text-anchor:start;color:#000000;fill:#000000;fill-opacity:1;stroke:none;stroke-width:42.14149857;marker:none;visibility:visible;display:inline;overflow:visible;enable-background:accumulate;font-family:Bitstream Vera Sans;-inkscape-font-specification:Bitstream Vera Sans"
     d="m 144.90381,135.09162 c -0.0446,1.78569 0.69708,3.57703 1.99099,4.80849 1.2939,1.23146 4.90101,1.75091 4.90101,1.75091 l 49.87601,-9.86598 c 0,0 4.68788,-5.4376 3.29146,-8.528 -1.39642,-3.09041 -4.70041,-4.1659 -4.70041,-4.1659 l -49.23395,9.74554 c 0,0 -6.04737,3.04447 -6.12511,6.25494 z"
     id="path3630"
     sodipodi:nodetypes="csccsccc" />
  <path
     sodipodi:type="arc"
     style="color:#000000;fill:#000000;fill-opacity:1;fill-rule:nonzero;stroke:none;stroke-width:0;marker:none;visibility:visible;display:inline;overflow:visible;enable-background:accumulate"
     id="path4032"
     sodipodi:cx="190"
     sodipodi:cy="103.75"
     sodipodi:rx="14.5"
     sodipodi:ry="14.5"
     d="m 204.5,103.75 a 14.5,14.5 0 1 1 -29,0 14.5,14.5 0 1 1 29,0 z"
     transform="translate(20.25,-3.25)" />
  <path
     inkscape:connector-curvature="0"
     style="font-size:medium;font-style:normal;font-variant:normal;font-weight:normal;font-stretch:normal;text-indent:0;text-align:start;text-decoration:none;line-height:normal;letter-spacing:normal;word-spacing:normal;text-transform:none;direction:ltr;block-progression:tb;writing-mode:lr-tb;text-anchor:start;color:#000000;fill:#000000;fill-opacity:1;stroke:none;stroke-width:54.18192673;marker:none;visibility:visible;display:inline;overflow:visible;enable-background:accumulate;font-family:Bitstream Vera Sans;-inkscape-font-specification:Bitstream Vera Sans"
     d="m 147.22934,178.21769 c -1.71739,0.66793 -3.19735,1.92961 -4.12861,3.51968 l -18.27832,29.66995 c -1.17847,1.84801 -1.57628,4.1769 -1.07806,6.31131 0.49822,2.13442 1.88596,4.04652 3.76079,5.18183 1.87485,1.1353 4.21233,1.47899 6.33462,0.9314 2.12229,-0.54758 4.00169,-1.9793 5.0932,-3.87996 l 18.27831,-29.66995 c 1.82222,-2.91473 1.55222,-6.98441 -0.6391,-9.63284 -2.19132,-2.64845 -6.13847,-3.67567 -9.34284,-2.43141 z"
     id="path3626-3"
     sodipodi:nodetypes="cccsssccscc" />
  <path
     style="fill:none;stroke:#000000;stroke-width:7;stroke-linecap:butt;stroke-linejoin:miter;stroke-miterlimit:4;stroke-opacity:1;stroke-dasharray:none"
     d="m 179.10403,227.10353 -74.43787,-9.68585 c 0,0 -11.13794,-1.41737 -10.021044,-16.544"
     id="path4052"
     inkscape:connector-curvature="0" />
  <path
     style="fill:none;stroke:#000000;stroke-width:7;stroke-linecap:butt;stroke-linejoin:miter;stroke-miterlimit:4;stroke-opacity:1;stroke-dasharray:none"
     d="M 89.5,135.25 150,135.5"
     id="path4054"
     inkscape:connector-curvature="0"
     sodipodi:nodetypes="cc" />
</svg>

<svg width="320" height="320" viewBox="0 0 320 320" fill="none" xmlns="http://www.w3.org/2000/svg">
<path d="M192.072 160.54C190.284 160.094 188.347 160.271 186.669 161.032L148.441 177.387C146.412 178.216 144.743 179.888 143.918 181.919C143.093 183.949 143.122 186.312 143.998 188.321C144.874 190.33 146.584 191.96 148.633 192.737C150.683 193.515 153.044 193.431 155.032 192.509L192.635 177.528C195.805 176.2 198.559 171.346 198.298 167.918C198.037 164.491 195.406 161.374 192.072 160.54H192.072Z" fill="black"/>
<path d="M203.811 118.856C201.506 118.561 199.17 119.071 197.198 120.3C195.226 121.53 193.739 123.403 192.99 125.603L178.983 164.813C178.503 166.067 178.279 167.405 178.323 168.746C178.367 170.088 178.678 171.408 179.24 172.628C179.801 173.848 180.6 174.943 181.59 175.849C182.581 176.756 183.742 177.456 185.007 177.907C186.271 178.358 187.613 178.553 188.954 178.478C190.294 178.404 191.607 178.062 192.813 177.474C194.02 176.885 195.097 176.061 195.981 175.05C196.865 174.04 197.538 172.863 197.961 171.588L211.967 132.377C212.498 130.955 212.701 129.431 212.561 127.919C212.42 126.407 211.94 124.947 211.156 123.646C210.371 122.346 209.303 121.24 208.032 120.411C206.76 119.581 205.317 119.05 203.811 118.856V118.856Z" fill="black"/>
<path d="M144.904 135.091C144.859 136.877 145.601 138.668 146.895 139.9C148.189 141.131 151.796 141.651 151.796 141.651L201.672 131.785C201.672 131.785 206.36 126.347 204.963 123.257C203.567 120.166 200.263 119.091 200.263 119.091L151.029 128.836C151.029 128.836 144.981 131.881 144.904 135.091V135.091Z" fill="black"/>
<path d="M224.75 100.5C224.75 104.346 223.222 108.034 220.503 110.753C217.784 113.472 214.096 115 210.25 115C206.404 115 202.716 113.472 199.997 110.753C197.278 108.034 195.75 104.346 195.75 100.5C195.75 96.6544 197.278 92.9662 199.997 90.2469C202.716 87.5277 206.404 86 210.25 86C214.096 86 217.784 87.5277 220.503 90.2469C223.222 92.9662 224.75 96.6544 224.75 100.5V100.5Z" fill="black"/>
<path d="M147.229 178.218C145.512 178.886 144.032 180.147 143.101 181.737L124.822 211.407C123.644 213.255 123.246 215.584 123.744 217.719C124.243 219.853 125.63 221.765 127.505 222.901C129.38 224.036 131.718 224.38 133.84 223.832C135.962 223.284 137.841 221.853 138.933 219.952L157.211 190.282C159.034 187.367 158.764 183.298 156.572 180.649C154.381 178.001 150.434 176.974 147.229 178.218H147.229Z" fill="black"/>
<path d="M179.104 227.104L104.666 217.418C104.666 217.418 93.5282 216.001 94.6451 200.874" stroke="black" stroke-width="7"/>
<path d="M89.5 135.25L150 135.5" stroke="black" stroke-width="7"/>
</svg>
